images/3232957.svg

<?xml version="1.0" encoding="UTF-8"?>
<svg xmlns="http://www.w3.org/2000/svg" xmlns:xlink="http://www.w3.org/1999/xlink" width="300pt" height="300pt" viewBox="0 0 300 300" version="1.1">
<defs>
<g>
<symbol overflow="visible" id="glyph0-0">
<path style="stroke:none;" d="M 0.453125 1.59375 L 0.453125 -6.34375 L 4.953125 -6.34375 L 4.953125 1.59375 Z M 0.953125 1.09375 L 4.453125 1.09375 L 4.453125 -5.84375 L 0.953125 -5.84375 Z M 0.953125 1.09375 "/>
</symbol>
<symbol overflow="visible" id="glyph0-1">
<path style="stroke:none;" d="M 0.890625 -6.5625 L 2.078125 -6.5625 L 4.984375 -1.078125 L 4.984375 -6.5625 L 5.84375 -6.5625 L 5.84375 0 L 4.65625 0 L 1.75 -5.484375 L 1.75 0 L 0.890625 0 Z M 0.890625 -6.5625 "/>
</symbol>
<symbol overflow="visible" id="glyph0-2">
<path style="stroke:none;" d="M 3.546875 -5.953125 C 2.898438 -5.953125 2.382812 -5.710938 2 -5.234375 C 1.625 -4.753906 1.4375 -4.101562 1.4375 -3.28125 C 1.4375 -2.445312 1.625 -1.789062 2 -1.3125 C 2.382812 -0.832031 2.898438 -0.59375 3.546875 -0.59375 C 4.191406 -0.59375 4.703125 -0.832031 5.078125 -1.3125 C 5.453125 -1.789062 5.640625 -2.445312 5.640625 -3.28125 C 5.640625 -4.101562 5.453125 -4.753906 5.078125 -5.234375 C 4.703125 -5.710938 4.191406 -5.953125 3.546875 -5.953125 Z M 3.546875 -6.6875 C 4.460938 -6.6875 5.195312 -6.375 5.75 -5.75 C 6.300781 -5.132812 6.578125 -4.3125 6.578125 -3.28125 C 6.578125 -2.238281 6.300781 -1.410156 5.75 -0.796875 C 5.195312 -0.179688 4.460938 0.125 3.546875 0.125 C 2.617188 0.125 1.878906 -0.179688 1.328125 -0.796875 C 0.773438 -1.410156 0.5 -2.238281 0.5 -3.28125 C 0.5 -4.3125 0.773438 -5.132812 1.328125 -5.75 C 1.878906 -6.375 2.617188 -6.6875 3.546875 -6.6875 Z M 3.546875 -6.6875 "/>
</symbol>
</g>
</defs>
<g id="surface29785">
<rect x="0" y="0" width="300" height="300" style="fill:rgb(100%,100%,100%);fill-opacity:1;stroke:none;"/>
<path style="fill:none;stroke-width:1.2;stroke-linecap:butt;stroke-linejoin:miter;stroke:rgb(0%,0%,0%);stroke-opacity:1;stroke-miterlimit:10;" d="M 35.25 102.585938 L 53.863281 118.449219 "/>
<path style="fill:none;stroke-width:1.2;stroke-linecap:butt;stroke-linejoin:miter;stroke:rgb(0%,0%,0%);stroke-opacity:1;stroke-miterlimit:10;" d="M 53.863281 118.449219 L 76.910156 110.257812 "/>
<path style="fill:none;stroke-width:1.2;stroke-linecap:butt;stroke-linejoin:miter;stroke:rgb(0%,0%,0%);stroke-opacity:1;stroke-miterlimit:10;" d="M 53.863281 118.449219 L 49.433594 142.5 "/>
<path style="fill:none;stroke-width:1.2;stroke-linecap:butt;stroke-linejoin:miter;stroke:rgb(0%,0%,0%);stroke-opacity:1;stroke-miterlimit:10;" d="M 49.433594 142.5 L 58.742188 150.429688 "/>
<path style="fill:none;stroke-width:1.2;stroke-linecap:butt;stroke-linejoin:miter;stroke:rgb(0%,0%,100%);stroke-opacity:1;stroke-miterlimit:10;" d="M 58.742188 150.429688 L 68.050781 158.359375 "/>
<path style="fill:none;stroke-width:1.2;stroke-linecap:butt;stroke-linejoin:miter;stroke:rgb(0%,0%,100%);stroke-opacity:1;stroke-miterlimit:10;" d="M 68.050781 158.359375 L 67.105469 170.550781 "/>
<path style="fill:none;stroke-width:1.2;stroke-linecap:butt;stroke-linejoin:miter;stroke:rgb(0%,0%,0%);stroke-opacity:1;stroke-miterlimit:10;" d="M 67.105469 170.550781 L 66.160156 182.742188 "/>
<path style="fill:none;stroke-width:1.2;stroke-linecap:butt;stroke-linejoin:miter;stroke:rgb(0%,0%,0%);stroke-opacity:1;stroke-miterlimit:10;" d="M 91.824219 152.625 L 79.9375 155.492188 "/>
<path style="fill:none;stroke-width:1.2;stroke-linecap:butt;stroke-linejoin:miter;stroke:rgb(0%,0%,100%);stroke-opacity:1;stroke-miterlimit:10;" d="M 79.9375 155.492188 L 68.050781 158.359375 "/>
<path style=" stroke:none;fill-rule:nonzero;fill:rgb(100%,100%,100%);fill-opacity:1;" d="M 65.050781 152.859375 L 72.050781 152.859375 L 72.050781 163.859375 L 65.050781 163.859375 Z M 65.050781 152.859375 "/>
<g style="fill:rgb(0%,0%,100%);fill-opacity:1;">
  <use xlink:href="#glyph0-1" x="65.050781" y="161.522461"/>
</g>
<path style="fill:none;stroke-width:1.2;stroke-linecap:butt;stroke-linejoin:miter;stroke:rgb(0%,0%,0%);stroke-opacity:1;stroke-miterlimit:10;" d="M 66.160156 182.742188 L 88.761719 192.078125 "/>
<path style=" stroke:none;fill-rule:nonzero;fill:rgb(0%,0%,0%);fill-opacity:1;" d="M 104.625 173.460938 L 85.480469 189.277344 L 92.046875 194.875 Z M 104.625 173.460938 "/>
<path style="fill:none;stroke-width:1.2;stroke-linecap:butt;stroke-linejoin:miter;stroke:rgb(0%,0%,0%);stroke-opacity:1;stroke-miterlimit:10;" d="M 104.625 173.460938 L 91.824219 152.625 "/>
<path style="fill:none;stroke-width:1.2;stroke-linecap:butt;stroke-linejoin:miter;stroke:rgb(0%,0%,0%);stroke-opacity:1;stroke-miterlimit:10;" d="M 104.625 173.460938 L 115.179688 195.523438 "/>
<path style="fill:none;stroke-width:1.2;stroke-linecap:butt;stroke-linejoin:miter;stroke:rgb(0%,0%,0%);stroke-opacity:1;stroke-miterlimit:10;" d="M 118.453125 153.292969 L 104.625 173.460938 "/>
<path style="fill:none;stroke-width:1.2;stroke-linecap:butt;stroke-linejoin:miter;stroke:rgb(0%,0%,0%);stroke-opacity:1;stroke-miterlimit:10;" d="M 115.179688 195.523438 L 139.5625 197.414062 "/>
<path style="fill:none;stroke-width:1.2;stroke-linecap:butt;stroke-linejoin:miter;stroke:rgb(0%,0%,0%);stroke-opacity:1;stroke-miterlimit:10;" d="M 139.5625 197.414062 L 153.390625 177.242188 "/>
<path style="fill:none;stroke-width:1.2;stroke-linecap:butt;stroke-linejoin:miter;stroke:rgb(0%,0%,0%);stroke-opacity:1;stroke-miterlimit:10;" d="M 153.390625 177.242188 L 148.113281 166.214844 "/>
<path style="fill:none;stroke-width:1.2;stroke-linecap:butt;stroke-linejoin:miter;stroke:rgb(0%,0%,100%);stroke-opacity:1;stroke-miterlimit:10;" d="M 148.113281 166.214844 L 142.835938 155.183594 "/>
<path style="fill:none;stroke-width:1.2;stroke-linecap:butt;stroke-linejoin:miter;stroke:rgb(0%,0%,100%);stroke-opacity:1;stroke-miterlimit:10;" d="M 142.835938 155.183594 L 130.644531 154.238281 "/>
<path style="fill:none;stroke-width:1.2;stroke-linecap:butt;stroke-linejoin:miter;stroke:rgb(0%,0%,0%);stroke-opacity:1;stroke-miterlimit:10;" d="M 130.644531 154.238281 L 118.453125 153.292969 "/>
<path style="fill:none;stroke-width:1.2;stroke-linecap:butt;stroke-linejoin:miter;stroke:rgb(0%,0%,100%);stroke-opacity:1;stroke-miterlimit:10;" d="M 142.835938 155.183594 L 149.75 145.097656 "/>
<path style="fill:none;stroke-width:1.2;stroke-linecap:butt;stroke-linejoin:miter;stroke:rgb(0%,0%,0%);stroke-opacity:1;stroke-miterlimit:10;" d="M 149.75 145.097656 L 156.664062 135.011719 "/>
<path style=" stroke:none;fill-rule:nonzero;fill:rgb(100%,100%,100%);fill-opacity:1;" d="M 139.835938 149.683594 L 146.835938 149.683594 L 146.835938 160.683594 L 139.835938 160.683594 Z M 139.835938 149.683594 "/>
<g style="fill:rgb(0%,0%,100%);fill-opacity:1;">
  <use xlink:href="#glyph0-1" x="139.835938" y="158.34668"/>
</g>
<path style="fill:none;stroke-width:1.2;stroke-linecap:butt;stroke-linejoin:miter;stroke:rgb(0%,0%,0%);stroke-opacity:1;stroke-miterlimit:10;" d="M 159.261719 133.769531 L 153.984375 122.738281 "/>
<path style="fill:none;stroke-width:1.2;stroke-linecap:butt;stroke-linejoin:miter;stroke:rgb(100%,0%,0%);stroke-opacity:1;stroke-miterlimit:10;" d="M 153.984375 122.738281 L 148.707031 111.707031 "/>
<path style="fill:none;stroke-width:1.2;stroke-linecap:butt;stroke-linejoin:miter;stroke:rgb(0%,0%,0%);stroke-opacity:1;stroke-miterlimit:10;" d="M 154.070312 136.253906 L 148.792969 125.222656 "/>
<path style="fill:none;stroke-width:1.2;stroke-linecap:butt;stroke-linejoin:miter;stroke:rgb(100%,0%,0%);stroke-opacity:1;stroke-miterlimit:10;" d="M 148.792969 125.222656 L 143.515625 114.191406 "/>
<path style="fill:none;stroke-width:1.2;stroke-linecap:butt;stroke-linejoin:miter;stroke:rgb(0%,0%,0%);stroke-opacity:1;stroke-miterlimit:10;" d="M 156.664062 135.011719 L 181.046875 136.902344 "/>
<path style=" stroke:none;fill-rule:nonzero;fill:rgb(100%,100%,100%);fill-opacity:1;" d="M 138.113281 107.449219 L 146.113281 107.449219 L 146.113281 118.449219 L 138.113281 118.449219 Z M 138.113281 107.449219 "/>
<g style="fill:rgb(100%,0%,0%);fill-opacity:1;">
  <use xlink:href="#glyph0-2" x="138.113281" y="116.112305"/>
</g>
<path style="fill:none;stroke-width:1.2;stroke-linecap:butt;stroke-linejoin:miter;stroke:rgb(0%,0%,0%);stroke-opacity:1;stroke-miterlimit:10;" d="M 181.046875 136.902344 L 191.601562 158.964844 "/>
<path style="fill:none;stroke-width:1.2;stroke-linecap:butt;stroke-linejoin:miter;stroke:rgb(0%,0%,0%);stroke-opacity:1;stroke-miterlimit:10;" d="M 187.292969 136.625 L 195.738281 154.273438 "/>
<path style="fill:none;stroke-width:1.2;stroke-linecap:butt;stroke-linejoin:miter;stroke:rgb(0%,0%,0%);stroke-opacity:1;stroke-miterlimit:10;" d="M 194.878906 116.730469 L 181.046875 136.902344 "/>
<path style="fill:none;stroke-width:1.2;stroke-linecap:butt;stroke-linejoin:miter;stroke:rgb(0%,0%,0%);stroke-opacity:1;stroke-miterlimit:10;" d="M 191.601562 158.964844 L 215.984375 160.855469 "/>
<path style="fill:none;stroke-width:1.2;stroke-linecap:butt;stroke-linejoin:miter;stroke:rgb(0%,0%,0%);stroke-opacity:1;stroke-miterlimit:10;" d="M 215.984375 160.855469 L 229.8125 140.683594 "/>
<path style="fill:none;stroke-width:1.2;stroke-linecap:butt;stroke-linejoin:miter;stroke:rgb(0%,0%,0%);stroke-opacity:1;stroke-miterlimit:10;" d="M 212.621094 155.585938 L 223.683594 139.449219 "/>
<path style="fill:none;stroke-width:1.2;stroke-linecap:butt;stroke-linejoin:miter;stroke:rgb(0%,0%,0%);stroke-opacity:1;stroke-miterlimit:10;" d="M 229.8125 140.683594 L 219.261719 118.625 "/>
<path style="fill:none;stroke-width:1.2;stroke-linecap:butt;stroke-linejoin:miter;stroke:rgb(0%,0%,0%);stroke-opacity:1;stroke-miterlimit:10;" d="M 229.8125 140.683594 L 242.003906 141.628906 "/>
<path style="fill:none;stroke-width:1.2;stroke-linecap:butt;stroke-linejoin:miter;stroke:rgb(100%,0%,0%);stroke-opacity:1;stroke-miterlimit:10;" d="M 242.003906 141.628906 L 254.195312 142.574219 "/>
<path style="fill:none;stroke-width:1.2;stroke-linecap:butt;stroke-linejoin:miter;stroke:rgb(0%,0%,0%);stroke-opacity:1;stroke-miterlimit:10;" d="M 219.261719 118.625 L 194.878906 116.730469 "/>
<path style="fill:none;stroke-width:1.2;stroke-linecap:butt;stroke-linejoin:miter;stroke:rgb(0%,0%,0%);stroke-opacity:1;stroke-miterlimit:10;" d="M 216.375 124.171875 L 196.871094 122.660156 "/>
<path style="fill:none;stroke-width:1.2;stroke-linecap:butt;stroke-linejoin:miter;stroke:rgb(100%,0%,0%);stroke-opacity:1;stroke-miterlimit:10;" d="M 254.195312 142.574219 L 259.472656 153.605469 "/>
<path style="fill:none;stroke-width:1.2;stroke-linecap:butt;stroke-linejoin:miter;stroke:rgb(0%,0%,0%);stroke-opacity:1;stroke-miterlimit:10;" d="M 259.472656 153.605469 L 264.75 164.636719 "/>
<path style=" stroke:none;fill-rule:nonzero;fill:rgb(100%,100%,100%);fill-opacity:1;" d="M 250.195312 137.074219 L 258.195312 137.074219 L 258.195312 148.074219 L 250.195312 148.074219 Z M 250.195312 137.074219 "/>
<g style="fill:rgb(100%,0%,0%);fill-opacity:1;">
  <use xlink:href="#glyph0-2" x="250.195312" y="145.737305"/>
</g>
</g>
</svg>

<svg xmlns="http://www.w3.org/2000/svg" xmlns:xlink="http://www.w3.org/1999/xlink" width="300pt" height="300pt" viewBox="0 0 300 300"><defs><symbol overflow="visible"><path d="M.453 1.594v-7.938h4.5v7.938zm.5-.5h3.5v-6.938h-3.5zm0 0"/></symbol><symbol overflow="visible" id="a"><path d="M.89-6.563H2.08l2.906 5.485v-5.484h.86V0H4.656L1.75-5.484V0H.89zm0 0"/></symbol><symbol overflow="visible" id="b"><path d="M3.547-5.953c-.65 0-1.164.242-1.547.72-.375.48-.563 1.13-.563 1.952 0 .835.188 1.49.563 1.967.383.48.898.72 1.547.72.644 0 1.156-.24 1.53-.72.376-.476.564-1.132.564-1.968 0-.822-.187-1.474-.562-1.954-.375-.477-.887-.72-1.53-.72zm0-.734c.914 0 1.648.312 2.203.937.55.617.828 1.438.828 2.47 0 1.042-.277 1.87-.828 2.483-.555.617-1.29.922-2.203.922-.93 0-1.668-.305-2.22-.922C.774-1.41.5-2.237.5-3.28c0-1.033.273-1.853.828-2.47.55-.625 1.29-.938 2.22-.938zm0 0"/></symbol></defs><g><path fill="#fff" d="M0 0h300v300H0z"/><path d="M35.25 102.586l18.613 15.863M53.863 118.45l23.047-8.192M53.863 118.45l-4.43 24.05M49.434 142.5l9.308 7.93" stroke-width="1.2" stroke="#000" stroke-miterlimit="10" fill="none"/><path d="M58.742 150.43l9.31 7.93M68.05 158.36l-.945 12.19" stroke-width="1.2" stroke="#00f" stroke-miterlimit="10" fill="none"/><path d="M67.105 170.55l-.945 12.192M91.824 152.625l-11.886 2.867" stroke-width="1.2" stroke="#000" stroke-miterlimit="10" fill="none"/><path d="M79.938 155.492L68.05 158.36" stroke-width="1.2" stroke="#00f" stroke-miterlimit="10" fill="none"/><path d="M65.05 152.86h7v11h-7zm0 0" fill="#fff"/><use xlink:href="#a" x="65.051" y="161.522" fill="#00f"/><path d="M66.16 182.742l22.602 9.336" stroke-width="1.2" stroke="#000" stroke-miterlimit="10" fill="none"/><path d="M104.625 173.46L85.48 189.278l6.567 5.598zm0 0"/><path d="M104.625 173.46l-12.8-20.835M104.625 173.46l10.555 22.063M118.453 153.293l-13.828 20.168M115.18 195.523l24.382 1.89M139.563 197.414l13.828-20.172M153.39 177.242l-5.277-11.027" stroke-width="1.2" stroke="#000" stroke-miterlimit="10" fill="none"/><path d="M148.113 166.215l-5.277-11.03M142.836 155.184l-12.19-.946" stroke-width="1.2" stroke="#00f" stroke-miterlimit="10" fill="none"/><path d="M130.645 154.238l-12.192-.945" stroke-width="1.2" stroke="#000" stroke-miterlimit="10" fill="none"/><path d="M142.836 155.184l6.914-10.086" stroke-width="1.2" stroke="#00f" stroke-miterlimit="10" fill="none"/><path d="M149.75 145.098l6.914-10.086" stroke-width="1.2" stroke="#000" stroke-miterlimit="10" fill="none"/><path d="M139.836 149.684h7v11h-7zm0 0" fill="#fff"/><use xlink:href="#a" x="139.836" y="158.347" fill="#00f"/><path d="M159.262 133.77l-5.278-11.032" stroke-width="1.2" stroke="#000" stroke-miterlimit="10" fill="none"/><path d="M153.984 122.738l-5.277-11.03" stroke-width="1.2" stroke="#f00" stroke-miterlimit="10" fill="none"/><path d="M154.07 136.254l-5.277-11.03" stroke-width="1.2" stroke="#000" stroke-miterlimit="10" fill="none"/><path d="M148.793 125.223l-5.277-11.032" stroke-width="1.2" stroke="#f00" stroke-miterlimit="10" fill="none"/><path d="M156.664 135.012l24.383 1.89" stroke-width="1.2" stroke="#000" stroke-miterlimit="10" fill="none"/><path d="M138.113 107.45h8v11h-8zm0 0" fill="#fff"/><use xlink:href="#b" x="138.113" y="116.112" fill="#f00"/><path d="M181.047 136.902l10.555 22.063M187.293 136.625l8.445 17.648M194.88 116.73l-13.833 20.172M191.602 158.965l24.382 1.89M215.984 160.855l13.828-20.17M212.62 155.586l11.064-16.137M229.813 140.684l-10.55-22.06M229.813 140.684l12.19.945" stroke-width="1.2" stroke="#000" stroke-miterlimit="10" fill="none"/><path d="M242.004 141.63l12.19.944" stroke-width="1.2" stroke="#f00" stroke-miterlimit="10" fill="none"/><path d="M219.262 118.625l-24.383-1.895M216.375 124.172l-19.504-1.512" stroke-width="1.2" stroke="#000" stroke-miterlimit="10" fill="none"/><path d="M254.195 142.574l5.278 11.03" stroke-width="1.2" stroke="#f00" stroke-miterlimit="10" fill="none"/><path d="M259.473 153.605l5.277 11.032" stroke-width="1.2" stroke="#000" stroke-miterlimit="10" fill="none"/><path d="M250.195 137.074h8v11h-8zm0 0" fill="#fff"/><use xlink:href="#b" x="250.195" y="145.737" fill="#f00"/></g></svg>
